X: 178
T: The Beautiful Charmer
%R: jig
B: Chas & Sam Thompson "Twenty Four Country Dances for the Year 1780", London 1780, p.89 #2
F: http://www.vwml.org/browse/browse-collections-dance-tune-books/browse-thompsons1780
Z: 2014 John Chambers <jc:trillian.mit.edu> (added dance description)
M: 6/8
L: 1/8
K: C
% - - - - - - - - - - - - - - - - - - - - - - - - - - - - -
|:\
efg gag | agf edc | def edc | dGG G2G |\
efg gag | agf edc | def edc | dcB c3 :|
|:\
efg efg | agf edc | def def | gfe dcB |\
cGc ece | agf edc | def edc | dcB c3 :|
% - - - - - - - - - - Dance description - - - - - - - - - -
%%begintext align
%%   Hey contrary sides .|. then on your
%% own sides :|. Lead down the middle up
%% again and cast off .|: Hands 4 at bottom
%% Right and Left at top :|:
%%endtext

%%sep 1 1 500
%%sep 1 1 500
